src/24/actions/im-user-offline.svg

<svg xmlns="http://www.w3.org/2000/svg" viewBox="0 0 24 24">
  <defs id="defs3051">
    <style type="text/css" id="current-color-scheme">
      .ColorScheme-Text {
        color:#5d656b;
      }
      </style>
  </defs>
 <path 
     style="fill:currentColor;fill-opacity:0.5;stroke:none" 
     d="M 12 4 A 3.9999902 4.0000296 0 0 0 8 8 A 3.9999902 4.0000296 0 0 0 12 12 A 3.9999902 4.0000296 0 0 0 16 8 A 3.9999902 4.0000296 0 0 0 12 4 z M 12 5 A 3 3.0000296 0 0 1 15 8 A 3 3.0000296 0 0 1 12 11 A 3 3.0000296 0 0 1 9 8 A 3 3.0000296 0 0 1 12 5 z M 12 13 A 7.9999504 8.0000296 0 0 0 4.0722656 20 L 5.0800781 20 A 6.9999604 7.0000296 0 0 1 12 14 A 6.9999604 7.0000296 0 0 1 13 14.080078 L 13 13.070312 A 7.9999504 8.0000296 0 0 0 12 13 z M 16.5 13 C 14.567003 13 13 14.567003 13 16.5 C 13 18.432997 14.567003 20 16.5 20 C 18.432997 20 20 18.432997 20 16.5 C 20 14.567003 18.432997 13 16.5 13 z M 14 16 L 19 16 L 19 17 L 14 17 L 14 16 z "
     class="ColorScheme-Text"
     />
  <path
     style="fill:#ffffff;fill-opacity:1;stroke:none"
     d="M 14 16 L 14 17 L 19 17 L 19 16 L 14 16 z "
     id="path10" />
</svg>

<svg xmlns="http://www.w3.org/2000/svg" viewBox="0 0 24 24"><path d="M12 4a4 4 0 0 0-4 4 4 4 0 0 0 4 4 4 4 0 0 0 4-4 4 4 0 0 0-4-4zm0 1a3 3 0 0 1 3 3 3 3 0 0 1-3 3 3 3 0 0 1-3-3 3 3 0 0 1 3-3zm0 8a8 8 0 0 0-7.928 7H5.08A7 7 0 0 1 12 14a7 7 0 0 1 1 .08v-1.01a8 8 0 0 0-1-.07zm4.5 0a3.5 3.5 0 1 0 0 7 3.5 3.5 0 0 0 0-7zM14 16h5v1h-5v-1z" fill="currentColor" fill-opacity=".5" color="#5d656b"/><path d="M14 16v1h5v-1h-5z" fill="#fff"/></svg>
